assets/svg/icon-large-gears-circle-dark-gray.svg

<?xml version="1.0" encoding="UTF-8" standalone="no"?>
<svg width="64px" height="64px" viewBox="0 0 64 64" version="1.1" xmlns="http://www.w3.org/2000/svg" xmlns:xlink="http://www.w3.org/1999/xlink">
    <!-- Generator: Sketch 3.8.3 (29802) - http://www.bohemiancoding.com/sketch -->
    <title>dark gray/icon-large-gears-circle-dark-gray</title>
    <desc>Created with Sketch.</desc>
    <defs>
        <ellipse id="path-1" cx="32" cy="32" rx="32" ry="32"></ellipse>
        <ellipse id="path-3" cx="32" cy="32" rx="32" ry="32"></ellipse>
    </defs>
    <g id="gray" stroke="none" stroke-width="1" fill="none" fill-rule="evenodd">
        <g id="icons,-large-detailed-(gray)" transform="translate(-627.000000, -248.000000)">
            <g id="dark-gray/icon-large-gears-circle-dark-gray" transform="translate(627.000000, 248.000000)">
                <ellipse id="path-1" fill="#FFFFFF" cx="32" cy="32" rx="32" ry="32"></ellipse>
                <ellipse id="path-1" cx="32" cy="32" rx="32" ry="32"></ellipse>
                <mask id="mask-2" fill="white">
                    <use xlink:href="#path-1"></use>
                </mask>
                <g id="path-1"></g>
                <path d="M33.356797,-2.63889402 C35.3161398,-1.17542535 37.0605509,0.559987814 38.5340859,2.51140122 L42.2138782,1.25922674 L44.5196442,5.25386518 L41.6156526,7.79469357 C42.5773968,10.0142772 43.2362059,12.3956273 43.5399138,14.8865776 L47.4554506,15.6318347 L47.4554506,20.2433667 L43.5646443,20.9826198 C43.2792973,23.4937246 42.6333206,25.8954261 41.6797701,28.1346803 L44.5196442,30.6213363 L42.2118555,34.6149634 L38.6563891,33.4033811 C37.171077,35.4027194 35.403191,37.1796341 33.4118203,38.6750496 L34.6159747,42.2118555 L30.6213363,44.5186328 L28.172515,41.7198896 C25.919161,42.6949526 23.4992365,43.3578318 20.9672888,43.653992 L20.2443781,47.4554506 L15.6318347,47.4554506 L14.9088978,43.6538542 C12.3769824,43.3575659 9.95712894,42.6945328 7.70387384,41.7193099 L5.2548765,44.5176216 L1.25922674,42.209833 L2.46425147,38.6736099 C0.473615998,37.1783886 -1.29363194,35.4018411 -2.77846402,33.4030155 L-6.3356428,34.6149634 L-8.6424201,30.620325 L-5.80208202,28.1333427 C-6.76453698,25.8728059 -7.4135563,23.4467706 -7.69457003,20.9098254 L-11.2,20.2443781 L-11.2,15.6308234 L-7.67072866,14.9596737 C-7.37131294,12.4424398 -6.70939821,10.0364656 -5.73865984,7.79542042 L-8.6424201,5.2548765 L-6.3356428,1.25821544 L-2.65691349,2.5109147 C-1.18368373,0.559776622 0.560381486,-1.17538854 2.51937184,-2.63867685 L1.25922674,-6.33665411 L5.25588779,-8.64343139 L7.83354056,-5.69868462 C10.0602291,-6.64784464 12.4476813,-7.29283259 14.9437105,-7.5814677 L15.6318347,-11.2 L20.2443781,-11.2 L20.9324864,-7.58155072 C23.4288486,-7.29292149 25.8166626,-6.64778158 28.0437021,-5.69835738 L30.6233589,-8.6444427 L34.6169861,-6.33766541 L33.356797,-2.63889402 L33.356797,-2.63889402 L33.356797,-2.63889402 Z M18.3840027,39.3280395 C6.83556722,39.3280395 -2.55999755,29.9324747 -2.55999755,18.3840394 C-2.55999755,6.83560384 6.83556722,-2.55996094 18.3840027,-2.55996094 C29.9324381,-2.55996094 39.3280029,6.83560384 39.3280029,18.3840394 C39.3270443,29.9324747 29.9314797,39.3280395 18.3840027,39.3280395 L18.3840027,39.3280395 Z M56.7072051,35.0937872 L55.23082,31.4243091 C49.3752685,31.7127728 51.3788275,31.6970861 49.3752685,31.7127728 L48.3813046,35.5736518 C46.8462435,36.0154621 45.3954514,36.6461762 44.0539926,37.4377611 L40.5653606,35.5743517 C36.2636786,39.5614254 37.7887888,38.2602886 36.2636786,39.5614254 L37.9855726,43.1620526 C37.1122098,44.4606997 36.3974837,45.8721435 35.8674037,47.367295 L31.9977277,48.1822195 C31.2665462,53.9985539 31.599456,52.0237541 31.2665462,53.9985539 L34.9005493,55.6515872 C35.0704922,57.2504442 35.4386808,58.7850554 35.9789938,60.2320848 L33.5376531,63.346172 C36.7177256,68.273585 35.7015666,66.5462888 36.7177256,68.273585 L40.5645971,67.2016702 C41.6964026,68.2893994 42.9626456,69.2353936 44.3338098,70.0132842 L44.4661568,73.9731395 C50.0689757,75.7047931 48.1804536,75.0328731 50.0689757,75.7047931 L52.3292379,72.4108389 C53.0964616,72.4618445 53.8752446,72.4664136 54.6626075,72.4218846 C55.4644755,72.3764563 56.2517741,72.2814184 57.0216893,72.1399192 L59.6684547,75.0895202 C65.0708307,72.8131843 63.195381,73.5103774 65.0708307,72.8131843 L64.6851725,68.8397355 C65.9578125,67.9094414 67.1070635,66.8241752 68.1065494,65.6134538 L72.032305,66.1724189 C74.7077838,60.9556707 73.718641,62.6995253 74.7077838,60.9556707 L71.8616853,58.1621078 C72.2321856,56.6626571 72.4217509,55.0958325 72.4070741,53.4877158 L75.771875,51.3962803 C74.4689952,45.6792958 74.8324072,47.6488667 74.4689952,45.6792958 L70.4924742,45.3684739 C69.7937941,43.9446882 68.9213656,42.6250275 67.9043002,41.4355149 L69.1372101,37.6694174 C64.4625296,34.1285474 66.0068125,35.4052824 64.4625296,34.1285474 L61.2174712,36.44728 C59.7948134,35.8156702 58.2820672,35.3561706 56.7072051,35.0937872 L56.7072051,35.0937872 Z M37.4821574,54.5572142 C36.9794837,45.657643 43.7837171,38.0363488 52.6919253,37.5302203 C61.5914965,37.0258192 69.217973,43.8335074 69.7206467,52.7348059 C70.2233205,61.6361045 63.4173595,69.262581 54.5108787,69.7652547 C45.613035,70.2731107 37.9882859,63.4619677 37.4821574,54.5572142 L37.4821574,54.5572142 Z" id="Oval-25" fill="#242F36" mask="url(#mask-2)"></path>
                <mask id="mask-4" fill="white">
                    <use xlink:href="#path-3"></use>
                </mask>
                <g id="path-1"></g>
                <path d="M32,64 C49.673112,64 64,49.673112 64,32 C64,14.326888 49.673112,0 32,0 C14.326888,0 0,14.326888 0,32 C0,49.673112 14.326888,64 32,64 L32,64 Z M32,61.6 C48.3476285,61.6 61.6,48.3476285 61.6,32 C61.6,15.6523714 48.3476285,2.4 32,2.4 C15.6523714,2.4 2.4,15.6523714 2.4,32 C2.4,48.3476285 15.6523714,61.6 32,61.6 L32,61.6 Z" id="Mask" fill="#242F36" mask="url(#mask-4)"></path>
            </g>
        </g>
    </g>
</svg>

<svg width="64" height="64" viewBox="0 0 64 64" xmlns="http://www.w3.org/2000/svg" xmlns:xlink="http://www.w3.org/1999/xlink"><title>dark gray/icon-large-gears-circle-dark-gray</title><defs><ellipse id="a" cx="32" cy="32" rx="32" ry="32"/><ellipse id="c" cx="32" cy="32" rx="32" ry="32"/></defs><g fill="none" fill-rule="evenodd"><ellipse fill="#FFF" cx="32" cy="32" rx="32" ry="32"/><ellipse cx="32" cy="32" rx="32" ry="32"/><mask id="b" fill="#fff"><use xlink:href="#a"/></mask><path d="M33.357-2.639a25.947 25.947 0 0 1 5.177 5.15l3.68-1.252 2.306 3.995-2.904 2.54a25.62 25.62 0 0 1 1.924 7.093l3.915.745v4.611l-3.89.74a25.62 25.62 0 0 1-1.885 7.152l2.84 2.486-2.308 3.994-3.556-1.212a25.943 25.943 0 0 1-5.244 5.272l1.204 3.537-3.995 2.307-2.448-2.8a25.62 25.62 0 0 1-7.206 1.935l-.723 3.801h-4.612l-.723-3.801a25.618 25.618 0 0 1-7.205-1.935l-2.45 2.799L1.26 42.21l1.205-3.536a25.943 25.943 0 0 1-5.242-5.271l-3.558 1.212-2.306-3.995 2.84-2.487a25.622 25.622 0 0 1-1.893-7.223l-3.505-.666v-4.613l3.53-.671A25.62 25.62 0 0 1-5.74 7.795l-2.903-2.54 2.306-3.997 3.68 1.253a25.942 25.942 0 0 1 5.175-5.15L1.26-6.337l3.997-2.306L7.834-5.7a25.62 25.62 0 0 1 7.11-1.882l.688-3.619h4.612l.688 3.618c2.497.29 4.885.934 7.112 1.884l2.58-2.946 3.993 2.306-1.26 3.7zM18.384 39.328c-11.548 0-20.944-9.396-20.944-20.944C-2.56 6.836 6.836-2.56 18.384-2.56c11.548 0 20.944 9.396 20.944 20.944-.001 11.548-9.397 20.944-20.944 20.944zm38.323-4.234l-1.476-3.67c-5.856.289-3.852.273-5.856.289l-.994 3.86a18.675 18.675 0 0 0-4.327 1.865l-3.489-1.864c-4.301 3.987-2.776 2.686-4.301 3.987l1.722 3.601a18.784 18.784 0 0 0-2.119 4.205l-3.87.815c-.73 5.817-.398 3.842-.73 5.817l3.634 1.653c.17 1.598.538 3.133 1.078 4.58l-2.441 3.114c3.18 4.928 2.164 3.2 3.18 4.928l3.847-1.072a18.902 18.902 0 0 0 3.769 2.811l.132 3.96c5.603 1.732 3.714 1.06 5.603 1.732l2.26-3.294a18.996 18.996 0 0 0 4.693-.271l2.646 2.95c5.403-2.277 3.527-1.58 5.403-2.277l-.386-3.973a18.906 18.906 0 0 0 3.422-3.227l3.925.56c2.676-5.217 1.687-3.473 2.676-5.217l-2.846-2.794c.37-1.5.56-3.066.545-4.674l3.365-2.092c-1.303-5.717-.94-3.747-1.303-5.717l-3.977-.31a18.792 18.792 0 0 0-2.588-3.933l1.233-3.767c-4.674-3.54-3.13-2.264-4.674-3.54l-3.246 2.318a18.674 18.674 0 0 0-4.51-1.353zM37.482 54.557c-.503-8.9 6.302-16.52 15.21-17.027 8.9-.504 16.526 6.304 17.029 15.205.502 8.901-6.304 16.528-15.21 17.03-8.898.508-16.523-6.303-17.029-15.208z" fill="#242F36" mask="url(#b)"/><mask id="d" fill="#fff"><use xlink:href="#c"/></mask><path d="M32 64c17.673 0 32-14.327 32-32C64 14.327 49.673 0 32 0 14.327 0 0 14.327 0 32c0 17.673 14.327 32 32 32zm0-2.4c16.348 0 29.6-13.252 29.6-29.6S48.348 2.4 32 2.4 2.4 15.652 2.4 32 15.652 61.6 32 61.6z" fill="#242F36" mask="url(#d)"/></g></svg>
